X:7
T:Double File
C:Traditional
S:Gaither Carlton, Deep Gap, NC
H:From tape of Mr. Carlton recorded by
H:Tom Carter, 3/18/72.
Z:Joel Shimberg
M:C|
K:A Mix
e4g4|B3cB4|ccef(a2a2)|afec BA3:|E2Ac BAcA|
E2Ac BAFA|E2Ac BAcd|1efec BAFA:|2efed cBAc||
